X:1801
T:kocsmárosné, szép csárdásné
Q:108
M:4/4
L:1/4
K:Bb
(3:2:2 d G2 (3:2:2 A B2 | (3:2:2 d G2 (3:2:2 A B2 | A>B A<D | G<G G/ z/ z |
(3:2:2 d G2 (3:2:2 A B2 | (3:2:2 d G2 (3:2:2 A B2 | A>B A D | G<G G/ z/ z |
(3:2:2 c c2 (3:2:2 c F2 | (3:2:2 f e2 d<c | d<d f>z |
(3:2:2 gf2 (3:2:2 e d2 | (3:2:2 g d2 (3:2:2 B G2 | A<B (3:2:2 A D2 | G<G G z | 